svgs/thin/keyboard-brightness.svg

<svg xmlns="http://www.w3.org/2000/svg" viewBox="0 0 640 512"><!--! Font Awesome Pro 6.0.0-alpha3 by @fontawesome - https://fontawesome.com License - https://fontawesome.com/license (Commercial License) --><path d="M120 400h-112C3.594 400 0 403.6 0 408S3.594 416 8 416h112C124.4 416 128 412.4 128 408S124.4 400 120 400zM320 248c4.406 0 8-3.578 8-8V96c0-4.422-3.594-8-8-8S312 91.58 312 96v144C312 244.4 315.6 248 320 248zM195.6 294.9c1.562 1.562 3.594 2.344 5.656 2.344s4.094-.7813 5.656-2.344c3.124-3.125 3.124-8.188 0-11.31L105 181.7c-3.125-3.125-8.188-3.125-11.31 0s-3.125 8.188 0 11.31L195.6 294.9zM632 400h-112c-4.406 0-8 3.578-8 8S515.6 416 520 416h112c4.406 0 8-3.578 8-8S636.4 400 632 400zM440 400h-240C195.6 400 192 403.6 192 408S195.6 416 200 416h240c4.406 0 8-3.578 8-8S444.4 400 440 400zM438.8 297.2c2.062 0 4.094-.7813 5.656-2.344l101.8-101.8c3.125-3.125 3.125-8.188 0-11.31s-8.188-3.125-11.31 0l-101.8 101.8c-3.126 3.125-3.126 8.188 0 11.31C434.7 296.4 436.7 297.2 438.8 297.2z"/></svg>

<svg xmlns="http://www.w3.org/2000/svg" viewBox="0 0 640 512"><!--! Font Awesome Pro 6.4.2 by @fontawesome - https://fontawesome.com License - https://fontawesome.com/license (Commercial License) Copyright 2023 Fonticons, Inc. --><path d="M101.7 178.3c-3.1-3.1-8.2-3.1-11.3 0s-3.1 8.2 0 11.3l104 104c3.1 3.1 8.2 3.1 11.3 0s3.1-8.2 0-11.3l-104-104zM312 240c0 4.4 3.6 8 8 8s8-3.6 8-8V96c0-4.4-3.6-8-8-8s-8 3.6-8 8V240zm122.3 42.3c-3.1 3.1-3.1 8.2 0 11.3s8.2 3.1 11.3 0l104-104c3.1-3.1 3.1-8.2 0-11.3s-8.2-3.1-11.3 0l-104 104zM0 408c0 4.4 3.6 8 8 8H120c4.4 0 8-3.6 8-8s-3.6-8-8-8H8c-4.4 0-8 3.6-8 8zm200-8c-4.4 0-8 3.6-8 8s3.6 8 8 8H440c4.4 0 8-3.6 8-8s-3.6-8-8-8H200zm320 0c-4.4 0-8 3.6-8 8s3.6 8 8 8H632c4.4 0 8-3.6 8-8s-3.6-8-8-8H520z"/></svg>
